src/front_assets/svg/package.svg

<svg width="17" height="17" viewBox="0 0 17 17" fill="none" xmlns="http://www.w3.org/2000/svg">
<path d="M8.49547 6.6294L8.38515 6.58037H8.18437H8.04057L7.90145 6.8934L7.90061 6.89528L8.49547 6.6294ZM8.49547 6.6294L8.25388 6.73677L8.43177 7.13704L8.49547 6.6294ZM8.23662 7.28037L7.90061 7.13103L7.81312 7.09215L7.72947 7.28037H8.23662ZM8.23662 7.28037H7.90061V7.66549M8.23662 7.28037L7.90061 7.66549M7.90061 7.66549L7.90144 7.66736L7.90061 7.66549ZM8.39035 7.51696L8.25388 7.824L8.39035 7.51696ZM8.39035 7.51696V7.88465V7.97809V7.98037V7.51696ZM8.49548 6.6294L8.38517 6.58037L8.49548 6.6294Z" fill="black" stroke="#E2342D" stroke-width="1.4"/>
<path d="M1.35706 12.5234V4.41722C1.35706 4.22915 1.46781 4.05873 1.63967 3.98235L8.30217 1.02123C8.42527 0.966537 8.56566 0.966537 8.68875 1.02123L15.3513 3.98235C15.5231 4.05873 15.6339 4.22915 15.6339 4.41722V12.5234C15.6339 12.7115 15.5231 12.8819 15.3513 12.9583L8.68875 15.9194C8.56566 15.974 8.42527 15.974 8.30217 15.9194L1.63967 12.9583C1.46781 12.8819 1.35706 12.7115 1.35706 12.5234Z" stroke="#E2342D" stroke-width="1.4" stroke-linecap="round" stroke-linejoin="round"/>
<path d="M4.92625 2.52161L11.7821 5.56863C11.9539 5.64501 12.0647 5.81543 12.0647 6.0035V8.86686" stroke="#E2342D" stroke-width="1.4" stroke-linecap="round" stroke-linejoin="round"/>
</svg>

<svg xmlns="http://www.w3.org/2000/svg" width="17" height="17" fill="none"><path fill="#000" stroke="#E2342D" stroke-width="1.4" d="m8.495 6.63-.11-.05h-.344l-.14.313v.002zm0 0-.241.107.178.4zm-.258.65L7.9 7.131l-.088-.039-.084.188zm0 0H7.9v.385m.336-.385-.336.385m0 0v.002zm.49-.148-.137.307zm0 0v.463zm.104-.888-.11-.049z"/><path stroke="#E2342D" stroke-linecap="round" stroke-linejoin="round" stroke-width="1.4" d="M1.357 12.523V4.417c0-.188.11-.358.283-.435l6.662-2.96a.48.48 0 0 1 .387 0l6.662 2.96a.48.48 0 0 1 .283.435v8.106c0 .188-.11.359-.283.435L8.69 15.92a.48.48 0 0 1-.387 0L1.64 12.96a.48.48 0 0 1-.283-.436"/><path stroke="#E2342D" stroke-linecap="round" stroke-linejoin="round" stroke-width="1.4" d="m4.926 2.522 6.856 3.047a.48.48 0 0 1 .283.434v2.864"/></svg>
